src/32x32/places/folder-gruvbox-original-blue-sync.svg

<svg xmlns="http://www.w3.org/2000/svg" width="32" height="32" version="1">
 <rect style="opacity:0.2" width="28" height="18" x="2" y="11" rx="1.4" ry="1.4"/>
 <path style="fill:#076678" d="M 2,22.6 C 2,23.376 2.6244,24 3.4,24 H 28.6 C 29.376,24 30,23.376 30,22.6 V 7.4 C 30,6.6244 29.376,6 28.6,6 H 16 C 13.9,6 13.2,3 11.1,3 H 3.4 C 2.6244,3 2,3.6244 2,4.4"/>
 <rect style="opacity:0.2" width="28" height="18" x="2" y="9" rx="1.4" ry="1.4"/>
 <rect style="fill:#d3d5b8" width="24" height="11" x="4" y="8" rx="1.4" ry="1.4"/>
 <rect style="fill:#83a598" width="28" height="18" x="2" y="10" rx="1.4" ry="1.4"/>
 <path style="opacity:0.1;fill:#d3d5b8" d="M 3.4004,3 C 2.6248,3 2,3.6248 2,4.4004 V 5.4004 C 2,4.6248 2.6248,4 3.4004,4 H 11.1 C 13.2,4 13.9,7 16,7 H 28.6 C 29.375,7 30,7.6248 30,8.4004 V 7.4004 C 30,6.6248 29.375,6 28.6,6 H 16 C 13.9,6 13.2,3 11.1,3 Z"/>
 <path style="fill:#2e3b3b" d="M 16 14 C 14.980124 14.0021 13.991205 14.350546 13.195312 14.988281 L 13.90625 15.699219 C 14.510473 15.246401 15.244932 15.001125 16 15 C 17.76162 15 19.2046 16.306127 19.449219 18 L 18 18 L 20 21.5 L 22 18 L 20.449219 18 C 20.197323 15.753391 18.313878 14 16 14 z M 12 15.5 L 10 19 L 11.550781 19 C 11.802677 21.246609 13.686122 23 16 23 C 17.019876 22.9979 18.008796 22.649454 18.804688 22.011719 L 18.09375 21.300781 C 17.489527 21.753599 16.755068 21.998875 16 22 C 14.23838 22 12.7954 20.693873 12.550781 19 L 14 19 L 12 15.5 z"/>
</svg>

<?xml version="1.0" encoding="UTF-8"?>
<svg width="32" height="32" version="1" xmlns="http://www.w3.org/2000/svg">
 <rect x="2" y="11" width="28" height="18" rx="1.4" ry="1.4" opacity=".2"/>
 <path d="m2 22.6c0 0.776 0.6244 1.4 1.4 1.4h25.2c0.776 0 1.4-0.624 1.4-1.4v-15.2c0-0.7756-0.624-1.4-1.4-1.4h-12.6c-2.1 0-2.8-3-4.9-3h-7.7c-0.7756 0-1.4 0.6244-1.4 1.4" fill="#076678"/>
 <rect x="2" y="9" width="28" height="18" rx="1.4" ry="1.4" opacity=".2"/>
 <rect x="4" y="8" width="24" height="11" rx="1.4" ry="1.4" fill="#d3d5b8"/>
 <rect x="2" y="10" width="28" height="18" rx="1.4" ry="1.4" fill="#83a598"/>
 <path d="m3.4004 3c-0.7756 0-1.4004 0.6248-1.4004 1.4004v1c0-0.7756 0.6248-1.4004 1.4004-1.4004h7.6996c2.1 0 2.8 3 4.9 3h12.6c0.775 0 1.4 0.6248 1.4 1.4004v-1c0-0.7756-0.625-1.4004-1.4-1.4004h-12.6c-2.1 0-2.8-3-4.9-3z" fill="#d3d5b8" opacity=".1"/>
 <path d="m16 14c-1.0199 0.0021-2.0088 0.35055-2.8047 0.98828l0.71094 0.71094c0.60422-0.45282 1.3387-0.69809 2.0938-0.69922 1.7616 0 3.2046 1.3061 3.4492 3h-1.4492l2 3.5 2-3.5h-1.5508c-0.2519-2.2466-2.1353-4-4.4492-4zm-4 1.5-2 3.5h1.5508c0.2519 2.2466 2.1353 4 4.4492 4 1.0199-0.0021 2.0088-0.35055 2.8047-0.98828l-0.71094-0.71094c-0.60422 0.45282-1.3387 0.69809-2.0938 0.69922-1.7616 0-3.2046-1.3061-3.4492-3h1.4492l-2-3.5z" fill="#2e3b3b"/>
</svg>
